flags/au-vic.svg

<svg width="512" height="512" viewBox="0 0 512 512" fill="none" xmlns="http://www.w3.org/2000/svg">
<rect width="512" height="512" fill="var(--flag-palette-navy, #002266)"/>
<rect width="256" height="256" fill="var(--flag-palette-navy, #002266)"/>
<path d="M232 256H256V232L152 128L256 24V0H232L128 104L24 0H0V24L104 128L0 232V256H24L128 152L232 256Z" fill="var(--flag-palette-white, #eeeeee)"/>
<path d="M256 160V96H160V0H96V96H0V160H96V256H160V160H256Z" fill="var(--flag-palette-white, #eeeeee)"/>
<path d="M256 144V112H144V0H112V112H0V144H112V256H144V144H256Z" fill="var(--flag-palette-bright-red, #d80027)"/>
<path d="M0 16V0L96 96H80L0 16Z" fill="var(--flag-palette-bright-red, #d80027)"/>
<path d="M256 240L256 256L160 160L176 160L256 240Z" fill="var(--flag-palette-bright-red, #d80027)"/>
<path d="M16 256L0 256L96 160L96 176L16 256Z" fill="var(--flag-palette-bright-red, #d80027)"/>
<path d="M240 -6.99382e-07L256 0L160 96L160 80L240 -6.99382e-07Z" fill="var(--flag-palette-bright-red, #d80027)"/>
<path d="M313 267L320 282L335 278L328 293L341 303L325 306V322L312 312L300 322V306L284 303L297 293L290 278L306 282L313 267ZM379 206L386 221L401 217L394 232L407 242L391 246V262L378 252L366 262V246L350 242L363 232L356 217L372 221L379 206ZM380 352L420 323H370L410 352L395 304L380 352ZM379 381L384 396L398 389L391 404L406 409L391 414L398 429L384 422L379 437L373 422L359 429L366 414L351 409L366 404L359 389L373 396L379 381ZM436 267L428 281H412L420 295L412 309H428L436 322L444 309H460L452 295L460 281H444L436 267Z" fill="var(--flag-palette-white, #eeeeee)"/>
<path d="M370 93V101H362V118H370V133C365.094 128.491 358.597 126.116 351.94 126.398C345.282 126.679 339.009 129.593 334.5 134.5C329.992 139.407 327.617 145.903 327.898 152.561C328.179 159.218 331.094 165.491 336 170V185H421V170C425.907 165.491 428.821 159.218 429.103 152.561C429.384 145.903 427.009 139.407 422.5 134.5C417.992 129.593 411.718 126.679 405.061 126.398C398.403 126.116 391.907 128.491 387 133V118H395V101H387V93H370Z" fill="var(--flag-palette-yellow, #ffda44)"/>
</svg>

<svg xmlns="http://www.w3.org/2000/svg" width="512" height="512" fill="none"><path fill="#026" d="M0 0h512v512H0z"/><path fill="#026" d="M0 0h256v256H0z"/><path fill="#EEE" d="M232 256h24v-24L152 128 256 24V0h-24L128 104 24 0H0v24l104 104L0 232v24h24l104-104z"/><path fill="#EEE" d="M256 160V96h-96V0H96v96H0v64h96v96h64v-96z"/><path fill="var(--flag-palette-bright-red, #d80027)" d="M256 144v-32H144V0h-32v112H0v32h112v112h32V144z"/><path fill="var(--flag-palette-bright-red, #d80027)" d="M0 16V0l96 96H80zm256 224v16l-96-96h16zM16 256H0l96-96v16zM240 0h16l-96 96V80z"/><path fill="#EEE" d="m313 267 7 15 15-4-7 15 13 10-16 3v16l-13-10-12 10v-16l-16-3 13-10-7-15 16 4zm66-61 7 15 15-4-7 15 13 10-16 4v16l-13-10-12 10v-16l-16-4 13-10-7-15 16 4zm1 146 40-29h-50l40 29-15-48zm-1 29 5 15 14-7-7 15 15 5-15 5 7 15-14-7-5 15-6-15-14 7 7-15-15-5 15-5-7-15 14 7zm57-114-8 14h-16l8 14-8 14h16l8 13 8-13h16l-8-14 8-14h-16z"/><path fill="var(--flag-palette-yellow, #ffda44)" d="M370 93v8h-8v17h8v15a25.1 25.1 0 1 0-34 37v15h85v-15a25.1 25.1 0 1 0-34-37v-15h8v-17h-8v-8z"/></svg>
